images/passEye.svg

<svg width="25" height="16" viewBox="0 0 25 16" fill="none" xmlns="http://www.w3.org/2000/svg">
<path d="M21.4957 11.7747C16.5849 16.6855 8.59519 16.6855 3.68439 11.7747L1.3937 9.15428C1.06379 8.77689 1.06426 8.21355 1.39479 7.83671L3.76576 5.13358C6.22096 2.67839 9.44608 1.45038 12.6716 1.45038C15.8972 1.45038 19.1219 2.67798 21.5775 5.13358L23.8682 7.7543C24.1981 8.13173 24.1976 8.6951 23.867 9.07192L21.4957 11.7747ZM20.993 5.71764C16.4044 1.12944 8.93844 1.12944 4.34982 5.71764L2.53585 7.84851C2.21844 8.22138 2.21772 8.76926 2.53417 9.14295L4.26845 11.191C8.85707 15.7792 16.323 15.7792 20.9116 11.191L22.7256 9.06015C23.043 8.68728 23.0437 8.1394 22.7273 7.76571L20.993 5.71764Z" fill="#606266" stroke="#606266"/>
<path d="M12.6168 13.8364C9.656 13.8364 7.24707 11.4275 7.24707 8.46672C7.24707 5.50595 9.656 3.09702 12.6168 3.09702C15.5775 3.09702 17.9865 5.50595 17.9865 8.46672C17.9865 11.4275 15.578 13.8364 12.6168 13.8364ZM12.6168 3.92313C10.1116 3.92313 8.07318 5.96155 8.07318 8.46672C8.07318 10.9719 10.1116 13.0103 12.6168 13.0103C15.1219 13.0103 17.1604 10.9719 17.1604 8.46672C17.1604 5.96155 15.1224 3.92313 12.6168 3.92313Z" fill="#606266" stroke="#606266"/>
</svg>

<svg width="25" height="16" fill="none" xmlns="http://www.w3.org/2000/svg"><path d="M21.496 11.775c-4.911 4.91-12.9 4.91-17.812 0l-2.29-2.62a1 1 0 010-1.318l2.372-2.703a12.556 12.556 0 018.906-3.684c3.225 0 6.45 1.228 8.905 3.684l2.291 2.62a1 1 0 01-.001 1.318l-2.371 2.703zm-.503-6.057c-4.589-4.589-12.055-4.589-16.643 0l-1.814 2.13a1 1 0 00-.002 1.295l1.734 2.048c4.59 4.588 12.055 4.588 16.644 0l1.814-2.13a1 1 0 00.001-1.295l-1.734-2.048z" fill="#606266" stroke="#606266"/><path d="M12.617 13.836a5.376 5.376 0 01-5.37-5.37c0-2.96 2.409-5.369 5.37-5.369 2.96 0 5.37 2.409 5.37 5.37 0 2.96-2.409 5.37-5.37 5.37zm0-9.913a4.549 4.549 0 00-4.544 4.544 4.549 4.549 0 004.544 4.543 4.549 4.549 0 004.543-4.543 4.549 4.549 0 00-4.543-4.544z" fill="#606266" stroke="#606266"/></svg>
